static/image/contact/icon_chatwork.svg

<svg viewBox="0 0 38.07 38.11" xmlns="http://www.w3.org/2000/svg"><path d="m35.57 19.6a8.5 8.5 0 0 0 -5.72-2.5h-4.58a8.46 8.46 0 0 0 6.43-2.49 8.56 8.56 0 1 0 -14.6-6.39v4.62a8.46 8.46 0 0 0 -2.49-6.43 8.56 8.56 0 1 0 -6.39 14.59h4.58a8.49 8.49 0 0 0 -6.43 2.5 8.56 8.56 0 1 0 14.63 6.39v-4.62a8.47 8.47 0 0 0 2.5 6.43 8.56 8.56 0 0 0 12.1-12.1zm-26.28-2.49h-1.23a4.67 4.67 0 1 1 5.13-5.11v9a3.91 3.91 0 0 0 -3.9-3.9zm7.79 11.76v1.23a4.67 4.67 0 1 1 -7.94-3.8 4.57 4.57 0 0 1 2.79-1.33h9a3.9 3.9 0 0 0 -3.86 3.85zm3.92-7.87h-3.9v-3.9h3.9zm0-7.81h-3.9a3.91 3.91 0 0 0 3.9-3.9v-1.23a4.67 4.67 0 1 1 5.14 5.13zm11.82 15.81a4.67 4.67 0 0 1 -7.94-2.8v-9a3.91 3.91 0 0 0 3.91 3.8h1.21a4.61 4.61 0 0 1 2.8 1.34 4.67 4.67 0 0 1 .02 6.66z" fill="#fff"/></svg>

<svg id="img_bg" data-name="img/bg" xmlns="http://www.w3.org/2000/svg" viewBox="0 0 38.07 38.11"><defs><style>.cls-1{fill:#fff;}</style></defs><title>icn_chatwork</title><path class="cls-1" d="M35.57,19.6a8.5,8.5,0,0,0-5.72-2.5H25.27a8.46,8.46,0,0,0,6.43-2.49A8.56,8.56,0,1,0,17.1,8.22v4.62a8.46,8.46,0,0,0-2.49-6.43A8.56,8.56,0,1,0,8.22,21H12.8A8.49,8.49,0,0,0,6.37,23.5,8.56,8.56,0,1,0,21,29.89V25.27a8.47,8.47,0,0,0,2.5,6.43,8.56,8.56,0,0,0,12.1-12.1ZM30,21h0ZM21,8.05ZM8.05,17.11Zm1.24,0H8.06A4.67,4.67,0,1,1,13.19,12h0V21A3.91,3.91,0,0,0,9.29,17.1Zm7.79,13h0Zm0-1.24v1.23h0a4.67,4.67,0,1,1-7.94-3.8,4.57,4.57,0,0,1,2.79-1.33h9A3.9,3.9,0,0,0,17.07,28.82ZM21,21H17.1V17.1H21ZM21,13.19H17.1A3.91,3.91,0,0,0,21,9.29V8.06h0a4.67,4.67,0,1,1,5.14,5.13H21ZM32.82,29a4.67,4.67,0,0,1-7.94-2.8h0v-9h0A3.91,3.91,0,0,0,28.79,21H30a4.61,4.61,0,0,1,2.8,1.34A4.67,4.67,0,0,1,32.82,29Z"/></svg>
